logo/glitch.svg

<?xml version="1.0" encoding="UTF-8"?>
<svg width="512px" height="157px" viewBox="0 0 512 157" version="1.1" xmlns="http://www.w3.org/2000/svg" xmlns:xlink="http://www.w3.org/1999/xlink">
    <title>Group 2</title>
    <defs>
        <linearGradient x1="48.6792116%" y1="-2.76243093e-06%" x2="48.6792116%" y2="99.3922613%" id="linearGradient-1">
            <stop stop-color="#E459FF" offset="0%"></stop>
            <stop stop-color="#914DFF" offset="100%"></stop>
        </linearGradient>
        <linearGradient x1="23.626192%" y1="46.6452578%" x2="65.8107837%" y2="51.3879731%" id="linearGradient-2">
            <stop stop-color="#F0A5FF" offset="0%"></stop>
            <stop stop-color="#FF676B" offset="100%"></stop>
        </linearGradient>
        <linearGradient x1="50.0000024%" y1="-2.19178973%" x2="50.0000024%" y2="103.082188%" id="linearGradient-3">
            <stop stop-color="#6E3BFF" offset="0%"></stop>
            <stop stop-color="#3633FF" offset="100%"></stop>
        </linearGradient>
        <linearGradient x1="40.569621%" y1="47.6721552%" x2="57.9619703%" y2="52.1491478%" id="linearGradient-4">
            <stop stop-color="#F0A5FF" offset="0%"></stop>
            <stop stop-color="#FF676B" offset="100%"></stop>
        </linearGradient>
    </defs>
    <g stroke="none" stroke-width="1" fill="none" fill-rule="evenodd">
        <g>
            <g>
                <path d="M60.0443953,12.7970126 C41.3638781,9.04530303 -2.557966,28.1690338 0.11692175,49.627439 L0.11692175,49.627439 C6.76200462,51.6031729 12.5487513,54.0189992 11.6030208,56.4941287 L11.6030208,56.4941287 L194.391179,56.4941287 C195.489849,49.1748617 189.7468,43.5629035 193.632722,37.4546709 L193.632722,37.4546709 C194.859362,35.5257554 195.792608,33.3252935 196.441822,31.131074 L196.441822,31.131074 L196.441822,19.2548221 C196.345064,19.1674279 196.238942,19.0925185 196.126578,19.0363365 L196.126578,19.0363365 C150.73776,33.72481 172.779834,30.6191935 124.338459,19.042579 L124.338459,19.042579 C115.933007,8.49284664 88.0323981,0.852093764 75.0262636,3.32664305e-14 L75.0262636,3.32664305e-14 C70.0323075,3.32664305e-14 60.0443953,12.7970126 60.0443953,12.7970126" fill="url(#linearGradient-1)"></path>
                <path d="M120.283991,50.2516835 L120.283991,55.8698842 L11.7029,55.8698842 C11.8027791,57.5303746 9.05922444,59.2345621 1.67753304,60.8638403 L1.67753304,60.8638403 C8.23210046,68.979019 27.5805592,76.7789542 34.4503701,77.7184422 L34.4503701,77.7184422 C33.2206084,77.9743825 31.8566342,78.430081 30.4052657,79.0512043 L30.4052657,79.0512043 C52.3724302,81.8166075 78.3441232,82.7529742 91.2597423,83.0245206 L91.2597423,83.0245206 L133.873794,83.0245206 C133.414974,82.9215202 132.94367,82.8185199 132.456759,82.7123983 L132.456759,82.7123983 C122.977606,80.927059 126.76677,82.2161239 122.156725,79.5911758 L122.156725,79.5911758 C183.182868,64.8995811 147.825659,67.071952 196.126578,77.7184422 L196.126578,77.7184422 C197.690311,74.9093419 190.199377,68.0426522 193.632722,59.3063502 L193.632722,59.3063502 C194.937393,55.9822482 194.619028,53.0233292 193.963571,50.2516835 L193.963571,50.2516835 L120.283991,50.2516835 Z" fill="url(#linearGradient-2)"></path>
                <path d="M77.835364,72.4123638 L77.835364,78.0305645 C67.6320874,77.8183213 49.9940586,77.6997149 33.3392149,77.9931098 L33.3392149,77.9931098 C22.3369053,81.1080899 2.90105229,97.712994 0.11692175,107.479299 L0.11692175,107.479299 L0.11692175,111.455737 C0.204315983,111.661738 0.307316328,111.861496 0.429044008,112.051891 L0.429044008,112.051891 C6.234518,113.777927 11.3845353,115.837934 11.9650827,117.982213 L11.9650827,117.982213 L93.7535991,117.982213 L93.7535991,112.364013 L194.035359,112.364013 C192.986629,107.713391 190.861076,103.612105 193.632722,99.254878 L193.632722,99.254878 C196.482398,93.1185544 197.818281,88.9080252 198.002433,86.1332583 L198.002433,86.1332583 L198.002433,84.9003754 C197.2034,74.5816135 174.821113,91.008608 162.420496,91.1396993 L162.420496,91.1396993 C148.374994,88.6396 151.184095,86.7699877 132.456759,82.7123983 L132.456759,82.7123983 C122.977606,80.927059 126.76677,82.2161239 122.156725,79.5911758 L122.156725,79.5911758 C133.758309,76.7976815 141.876609,74.615947 147.75075,72.9835476 L147.75075,72.9835476 L147.75075,72.4123638 L77.835364,72.4123638 Z" fill="url(#linearGradient-3)"></path>
                <path d="M70.3444298,28.0910032 L70.656552,28.0910032 C78.1381226,41.3405931 73.3720157,51.5126574 69.408063,64.6093074 L69.408063,64.6093074 C68.2906653,67.2592253 72.3232849,69.3098686 73.4656524,66.4820409 L73.4656524,66.4820409 C76.6461782,54.3155153 81.6838314,40.9410766 75.6505082,28.7152477 L75.6505082,28.7152477 L76.2747527,28.7152477 C105.155425,28.9368545 134.382553,34.1805085 160.547762,46.8183387 L160.547762,46.8183387 C162.286283,47.2116127 167.879514,51.5126574 168.975063,48.0668277 L168.975063,48.0668277 C156.371566,33.1598687 107.327796,24.6701433 86.5747872,25.2787817 L86.5747872,25.2787817 C85.6727539,25.4504489 83.5128678,25.1757813 81.0439808,24.904235 L81.0439808,24.904235 C79.1088228,24.6888706 76.980149,24.4766275 75.1105366,24.4766275 L75.1105366,24.4766275 C71.6366159,24.4766275 69.070971,25.2194784 70.3444298,28.0910032 L70.3444298,28.0910032 Z" fill="#974DFF"></path>
                <path d="M70.3444298,28.0910032 L70.656552,28.0910032 C75.1667187,36.6244257 76.3246922,47.0555516 71.9050411,55.8698842 L71.9050411,55.8698842 L76.2747527,55.8698842 C78.5470027,47.0149757 79.308581,37.5264591 75.3383859,29.02737 L75.3383859,29.02737 C104.562393,29.1147642 134.210886,33.8995984 160.547762,47.1304609 L160.547762,47.1304609 C162.280041,47.4363408 168.204121,52.1337807 168.975063,48.37895 L168.975063,48.37895 C155.728595,33.1910809 107.917707,24.6732645 86.5747872,25.2787817 L86.5747872,25.2787817 C85.5447837,25.4754187 83.403625,25.1882662 81.0002837,24.8979925 L81.0002837,24.8979925 C79.1462774,24.6763857 77.1330889,24.4516577 75.3571132,24.4516577 L75.3571132,24.4516577 C72.0923144,24.4516577 69.6140637,25.2038723 70.3444298,28.0910032 L70.3444298,28.0910032 Z" fill="#F1A5FF"></path>
                <path d="M59.1080285,29.6516145 L59.4201507,29.6516145 C65.481565,37.9010058 65.2131399,47.8733119 61.2928843,56.8062509 L61.2928843,56.8062509 C59.9788496,58.9786218 63.2436484,61.1509928 64.4141069,58.6789845 L64.4141069,58.6789845 C66.6052051,54.0564538 68.1158769,48.8315272 68.159574,43.6971161 L68.159574,43.6971161 C68.2032711,37.9197331 65.565838,31.9613192 62.5413733,27.1546364 L62.5413733,27.1546364 C62.1449781,26.4398765 61.5706731,26.1464815 60.980762,26.1464815 L60.980762,26.1464815 C59.4700903,26.1464815 57.8876305,28.0753971 59.1080285,29.6516145 L59.1080285,29.6516145 Z" fill="#974DFF"></path>
                <path d="M65.6625959,55.8701963 C67.472905,48.3168376 68.8150307,40.2859319 64.7262291,33.0852715 C64.1550454,31.9023281 62.4695852,28.4877106 62.5413733,27.1549486 C61.2398235,24.7453647 57.7752664,27.1424637 59.1080285,29.3398044 L59.4201507,29.3398044 C64.9696845,37.2645885 65.6625959,47.1401367 61.6050066,55.8701963 L65.6625959,55.8701963 Z" fill="#F1A5FF"></path>
                <path d="M59.1080285,29.3394922 L59.4201507,29.3394922 C64.9665633,37.2642764 65.6625959,47.1429458 61.6050066,55.8698842 L61.6050066,55.8698842 L65.6625959,55.8698842 C67.472905,48.3165255 68.8150307,40.2856198 64.7262291,33.0849593 L64.7262291,33.0849593 C64.1550454,31.902016 62.466464,28.4873985 62.5413733,27.1546364 L62.5413733,27.1546364 C62.1543417,26.4398765 61.5800368,26.1496028 60.9963681,26.1496028 L60.9963681,26.1496028 C59.6074241,26.1496028 58.1716617,27.7944871 59.1080285,29.3394922 L59.1080285,29.3394922 Z" fill="#F1A5FF"></path>
                <path d="M93.4414769,112.364013 L93.4414769,117.982213 L11.9650827,117.982213 C12.4395085,119.739462 9.83640886,121.556013 1.9896553,123.288292 L1.9896553,123.288292 C17.1057362,137.976765 35.920466,142.614902 52.5503399,138.894405 L52.5503399,138.894405 C55.1503183,150.614596 77.0456946,157.322103 91.5687433,152.627784 L91.5687433,152.627784 C91.7685016,149.628289 91.2347725,146.631916 90.008132,143.888361 L90.008132,143.888361 C110.305442,147.343554 159.839245,131.768654 162.420496,130.467104 L162.420496,130.467104 C164.758292,130.033254 171.949588,132.60202 179.100309,135.173907 L179.100309,135.173907 C187.224852,138.095372 195.296333,141.013715 196.126578,139.518649 L196.126578,139.518649 C197.690311,136.709549 190.199377,129.842859 193.632722,121.103436 L193.632722,121.103436 C194.887453,117.907304 194.640877,115.045143 194.035359,112.364013 L194.035359,112.364013 L93.4414769,112.364013 Z" fill="url(#linearGradient-4)"></path>
                <path d="M70.3444298,90.5154548 L70.656552,90.5154548 C78.2099107,103.843075 73.2284394,114.14311 69.408063,127.345881 L69.408063,127.345881 C68.2906653,129.99892 72.3232849,132.046442 73.4656524,129.218615 L73.4656524,129.218615 C76.8802699,117.195665 81.5527401,103.858681 75.6505082,91.7608226 L75.6505082,91.7608226 L76.2747527,91.4518216 C105.146062,91.6859133 134.407523,96.4457777 160.547762,109.24279 L160.547762,109.24279 C162.286283,109.636064 167.879514,113.933988 168.975063,110.491279 L168.975063,110.491279 C156.371566,95.5874415 107.327796,87.0945948 86.5747872,87.7063545 L86.5747872,87.7063545 C85.6727539,87.8780217 83.5159891,87.6033541 81.0502232,87.3318078 L81.0502232,87.3318078 C79.111944,87.1164434 76.980149,86.901079 75.1105366,86.901079 L75.1105366,86.901079 C71.6366159,86.901079 69.070971,87.6470512 70.3444298,90.5154548 L70.3444298,90.5154548 Z" fill="#373FFF"></path>
                <path d="M70.3444298,90.5154548 L70.656552,90.5154548 C75.1261428,98.9583619 76.321571,109.261518 71.9050411,117.982213 L71.9050411,117.982213 L76.2747527,117.982213 C78.5626088,109.130426 79.308581,99.6387884 75.3383859,91.1396993 L75.3383859,91.1396993 C104.531181,91.2395784 134.095401,96.4738687 160.547762,109.24279 L160.547762,109.24279 C162.280041,109.636064 167.885757,113.937109 168.975063,110.491279 L168.975063,110.491279 C156.374688,95.5874415 107.327796,87.0914736 86.5747872,87.7063545 L86.5747872,87.7063545 C85.6727539,87.8780217 83.5191103,87.6033541 81.0502232,87.3318078 L81.0502232,87.3318078 C79.111944,87.1164434 76.980149,86.901079 75.1105366,86.901079 L75.1105366,86.901079 C71.6366159,86.901079 69.070971,87.6470512 70.3444298,90.5154548 L70.3444298,90.5154548 Z" fill="#F1A5FF"></path>
                <path d="M59.1077164,92.0766903 L59.4198386,92.0766903 C65.4812529,100.326082 65.2128277,110.298388 61.2925722,119.231327 C59.9785375,121.403698 63.2433363,123.576069 64.4137947,121.10406 C66.604893,116.48153 68.1155647,111.259724 68.1592618,106.122192 C68.2809895,100.182505 65.3158281,94.3645465 62.5410612,89.26759 C60.9991772,86.5552476 56.9884062,89.9292892 59.1077164,92.0766903" fill="#373FFF"></path>
                <path d="M65.6625959,117.982213 C66.4678713,112.872772 68.3936657,107.682179 67.2232072,102.376101 C67.0671461,99.2892115 59.3296353,80.983241 58.483784,91.7639438 L59.4201507,91.7639438 C65.0227453,99.6887279 65.6688383,109.54867 61.6050066,118.294336 L65.6625959,117.982213 Z" fill="#F1A5FF"></path>
                <path d="M58.483784,91.7608226 L59.4201507,91.7608226 C65.0227453,99.6887279 65.6688383,109.54867 61.6050066,118.294336 L61.6050066,118.294336 L65.6625959,117.982213 C66.4678713,112.875893 68.3936657,107.682179 67.2232072,102.376101 L67.2232072,102.376101 C67.1014795,99.9758804 62.4071608,88.3992659 59.9195464,88.3992659 L59.9195464,88.3992659 C59.2047864,88.3992659 58.6741785,89.35436 58.483784,91.7608226 L58.483784,91.7608226 Z" fill="#F1A5FF"></path>
                <path d="M33.8255014,31.8361582 C38.4792442,31.8361582 42.2528023,35.6097163 42.2528023,40.2634591 C42.2528023,44.917202 38.4792442,48.6907601 33.8255014,48.6907601 C29.1717585,48.6907601 25.3982004,44.917202 25.3982004,40.2634591 C25.3982004,35.6097163 29.1717585,31.8361582 33.8255014,31.8361582" fill="#000000"></path>
                <path d="M25.0867024,39.6392146 L25.0867024,39.6392146 C25.2583696,34.6421373 29.4470503,30.7312454 34.4441277,30.9060339 C39.441205,31.0777011 43.3520969,35.269503 43.1773084,40.2634591 C43.0118836,45.1356876 39.0135975,48.9997611 34.1382479,49.0028824 C29.4969899,49.3587017 25.445643,45.884781 25.0898236,41.2466443 C25.0867024,41.2310381 25.0867024,41.215432 25.0867024,41.1998259 C25.5736131,44.7018377 28.7478965,47.189452 32.2655143,46.8180266 C36.229467,46.8180266 39.4443262,43.6062885 39.4443262,39.6392146 C39.4443262,35.675262 36.229467,32.4604027 32.2655143,32.4604027 C28.3015616,32.4604027 25.0867024,35.675262 25.0867024,39.6392146" fill="#FFFFFF"></path>
                <path d="M28.8327937,39.6392146 C30.2092529,39.6392146 31.3297718,40.7566123 31.3297718,42.1361927 C31.3297718,43.5157731 30.2092529,44.6331708 28.8327937,44.6331708 C27.4532133,44.6331708 26.3358157,43.5157731 26.3358157,42.1361927 C26.3358157,40.7566123 27.4532133,39.6392146 28.8327937,39.6392146" fill="#FFFFFF"></path>
                <path d="M33.8255014,94.2621704 C38.4792442,94.2621704 42.2528023,98.0326072 42.2528023,102.68635 C42.2528023,107.340093 38.4792442,111.113651 33.8255014,111.113651 C29.1717585,111.113651 25.3982004,107.340093 25.3982004,102.68635 C25.3982004,98.0326072 29.1717585,94.2621704 33.8255014,94.2621704" fill="#000000"></path>
                <path d="M25.0867024,101.751232 L25.0867024,101.751232 C25.2583696,96.7541545 29.4470503,92.8432626 34.4441277,93.018051 C39.441205,93.1897183 43.3520969,97.3815202 43.1773084,102.375476 C43.0118836,107.250826 39.0135975,111.111778 34.1382479,111.1149 C29.4969899,111.470719 25.445643,107.999919 25.0898236,103.358661 C25.0867024,103.343055 25.0867024,103.327449 25.0867024,103.311843 C25.4113095,106.916855 28.601199,109.576137 32.2062111,109.248408 C32.2280596,109.245287 32.2436658,109.242166 32.2655143,109.242166 C36.229467,109.239045 39.441205,106.021064 39.4380838,102.057112 C39.4349626,98.093159 36.2169821,94.8814209 32.2499082,94.8845421 C28.4108044,94.8907846 25.2552484,97.9152493 25.0867024,101.751232" fill="#FFFFFF"></path>
                <path d="M28.8327937,102.065227 C30.2092529,102.065227 31.3297718,103.179503 31.3297718,104.562205 C31.3297718,105.938664 30.2092529,107.059183 28.8327937,107.059183 C27.4532133,107.059183 26.3358157,105.938664 26.3358157,104.562205 C26.3358157,103.179503 27.4532133,102.065227 28.8327937,102.065227" fill="#FFFFFF"></path>
            </g>
            <path d="M260.739631,35.5813132 C274.785133,35.5813132 286.018413,41.1995138 290.700247,59.3026048 L275.7215,63.3601941 C272.600277,53.0601596 267.918443,49.0025702 260.739631,49.0025702 C253.560819,49.0025702 243.572907,52.4359151 243.572907,73.3481064 C243.572907,94.2634189 253.560819,99.2542538 261.363876,99.2542538 C269.182538,99.4602544 275.846349,93.6142046 276.654745,85.8329967 L263.548732,85.8329967 L263.548732,73.6602286 L291.951857,73.6602286 L291.951857,110.802777 L278.842722,110.802777 L278.842722,100.505864 L278.5306,100.505864 C275.100376,108.034253 267.444017,112.728572 259.17902,112.363389 C237.01834,112.363389 227.030427,95.8240301 227.030427,73.6602286 C227.030427,50.5631815 239.82744,35.5813132 260.739631,35.5813132 Z M430.222017,56.4947529 C442.079542,56.4947529 450.197842,64.2978094 453.319064,72.7251103 L439.897807,77.0948219 C437.712952,70.2281323 434.591729,68.0432765 429.909895,68.0432765 C425.228061,68.0432765 419.297738,73.6614771 419.297738,84.2736339 C419.297738,94.8826694 422.418961,100.503991 429.594652,100.503991 C436.776585,100.503991 437.712952,98.3191355 440.20993,91.1403235 L453.631187,95.8221574 C450.154145,106.000464 440.3379,112.629941 429.594652,112.049394 C417.109761,112.049394 403.379503,104.873703 403.379503,84.2736339 C403.379503,63.0493203 418.361372,56.4947529 430.222017,56.4947529 Z M384.028547,39.3255318 L384.028547,57.7438662 L397.761927,57.7438662 L397.761927,69.2923897 L384.028547,69.2923897 L384.028547,92.3863156 C384.028547,98.0045162 385.589159,99.880371 391.519482,99.880371 L396.822439,99.2561265 L396.822439,110.80465 L386.213403,111.741017 C370.292047,111.428895 368.110312,105.807573 368.110312,95.8227817 L368.110312,69.2923897 L359.058767,69.2923897 L359.058767,57.7438662 L367.795069,57.7438662 L367.795069,39.3255318 L384.028547,39.3255318 Z M321.602847,36.8304264 L321.602847,110.803402 L305.684612,110.803402 L305.684612,36.8304264 L321.602847,36.8304264 Z M350.630217,57.7426177 L350.630217,110.803402 L334.711982,110.803402 L334.711982,57.7426177 L350.630217,57.7426177 Z M477.974226,36.8304264 L477.974226,65.8577964 C482.265907,59.9742919 489.110748,56.4941287 496.39256,56.4941287 C505.444106,56.4941287 511.998673,60.8638403 511.998673,72.1002416 L511.998673,110.803402 L495.765195,110.803402 L495.765195,77.0941977 C495.765195,72.4123638 493.895582,69.9153858 489.522749,69.9153858 C485.15928,70.2306292 481.057994,72.1158477 477.974226,75.2214641 L477.974226,110.803402 L461.74699,110.803402 L461.74699,36.8304264 L477.974226,36.8304264 Z M350.94234,37.4546709 L350.94234,50.2516835 L334.711982,50.2516835 L334.711982,37.4546709 L350.94234,37.4546709 Z" fill="#000000"></path>
        </g>
    </g>
</svg>

<svg viewBox="0 0 512 157" xmlns="http://www.w3.org/2000/svg" xmlns:xlink="http://www.w3.org/1999/xlink"><defs><linearGradient id="a" x1="48.679%" x2="48.679%" y1="-.001%" y2="99.392%"><stop offset="0%" stop-color="#E459FF"/><stop offset="100%" stop-color="#914DFF"/></linearGradient><linearGradient id="b" x1="23.626%" x2="65.81%" y1="46.645%" y2="51.387%"><stop offset="0%" stop-color="#F0A5FF"/><stop offset="100%" stop-color="#FF676B"/></linearGradient><linearGradient id="c" x1="50%" x2="50%" y1="-2.192%" y2="103.082%"><stop offset="0%" stop-color="#6E3BFF"/><stop offset="100%" stop-color="#3633FF"/></linearGradient><linearGradient id="d" x1="40.569%" x2="57.961%" y1="47.672%" y2="52.149%" xlink:href="#b"/></defs><g fill="url(#a)" fill-rule="evenodd"><path d="M60.04 12.79C41.35 9.03-2.57 28.16.11 49.62v0c6.64 1.97 12.43 4.39 11.48 6.86v0h182.78c1.09-7.32-4.65-12.94-.76-19.04v0c1.22-1.93 2.15-4.13 2.8-6.33v0V19.23c-.1-.09-.21-.17-.32-.22v0c-45.39 14.68-23.35 11.58-71.79 0v0C115.89 8.46 87.99.81 74.98-.04v0c-5 0-14.99 12.79-14.99 12.79"/><path fill="url(#b)" d="M120.28 50.25v5.61H11.69c.09 1.66-2.65 3.36-10.03 4.99v0c6.55 8.11 25.9 15.91 32.77 16.85v0c-1.23.25-2.6.71-4.05 1.33v0c21.96 2.76 47.93 3.7 60.85 3.97v0h42.61c-.46-.11-.94-.21-1.42-.32v0c-9.48-1.79-5.69-.5-10.31-3.13v0c61.02-14.7 25.66-12.52 73.96-1.88v0c1.56-2.81-5.93-9.68-2.5-18.42v0c1.3-3.33.98-6.29.33-9.06v0h-73.68Z"/><path fill="url(#c)" d="M77.83 72.41v5.61c-10.21-.22-27.85-.34-44.5-.04v0C22.32 81.09 2.89 97.69.1 107.46v0 3.97c.08.2.19.4.31.59v0c5.8 1.72 10.95 3.78 11.53 5.93v0h81.78v-5.62H194c-1.05-4.66-3.18-8.76-.41-13.11v0c2.84-6.14 4.18-10.35 4.36-13.13v0 -1.24c-.8-10.32-23.19 6.1-35.59 6.23v0c-14.05-2.51-11.24-4.37-29.97-8.43v0c-9.48-1.79-5.69-.5-10.31-3.13v0c11.6-2.8 19.71-4.98 25.59-6.61v0 -.58H77.75Z"/><path fill="#974DFF" d="M70.34 28.09h.31c7.48 13.24 2.71 23.42-1.25 36.51v0c-1.12 2.64 2.91 4.7 4.05 1.87v0c3.18-12.17 8.21-25.55 2.18-37.77v-.001h.62c28.88.22 58.1 5.46 84.27 18.1v0c1.73.39 7.33 4.69 8.42 1.24v0c-12.61-14.91-61.65-23.4-82.41-22.79v0c-.91.17-3.07-.11-5.54-.38v0c-1.94-.22-4.07-.43-5.94-.43v0c-3.48 0-6.04.74-4.77 3.61v0Z"/><path fill="#F1A5FF" d="M70.34 28.09h.31c4.51 8.53 5.66 18.96 1.24 27.77v0h4.36c2.27-8.86 3.03-18.35-.94-26.85v0c29.22.08 58.87 4.87 85.2 18.1v0c1.73.3 7.65 5 8.42 1.24v0c-13.25-15.19-61.06-23.71-82.41-23.11v0c-1.04.19-3.18-.1-5.58-.39v0c-1.86-.23-3.87-.45-5.65-.45v0c-3.27 0-5.75.75-5.02 3.63v0Z"/><path fill="#974DFF" d="M59.1 29.65h.31c6.06 8.24 5.79 18.22 1.87 27.15v0c-1.32 2.17 1.95 4.34 3.12 1.87v0c2.19-4.63 3.7-9.85 3.74-14.99v0c.04-5.78-2.6-11.74-5.62-16.55v0c-.4-.72-.98-1.01-1.57-1.01v0c-1.52 0-3.1 1.92-1.88 3.5v0Z"/><g fill="#F1A5FF"><path d="M65.66 55.87c1.81-7.56 3.15-15.59-.94-22.79 -.58-1.19-2.26-4.6-2.19-5.94 -1.31-2.41-4.77-.02-3.44 2.18h.31c5.54 7.92 6.24 17.8 2.18 26.53h4.05Z"/><path d="M59.1 29.33h.31c5.54 7.92 6.24 17.8 2.18 26.53v0h4.05c1.81-7.56 3.15-15.59-.94-22.79v0c-.58-1.19-2.26-4.6-2.19-5.94v0c-.39-.72-.97-1.01-1.55-1.01v0c-1.39 0-2.83 1.64-1.89 3.18v0Z"/></g><path fill="url(#d)" d="M93.44 112.36v5.61H11.96c.47 1.75-2.13 3.57-9.98 5.3v0c15.11 14.68 33.93 19.32 50.56 15.6v0c2.59 11.72 24.49 18.42 39.01 13.73v0c.19-3-.34-6-1.57-8.74v0c20.29 3.45 69.83-12.12 72.41-13.43v0c2.33-.44 9.52 2.13 16.67 4.7v0c8.12 2.92 16.19 5.83 17.02 4.34v0c1.56-2.81-5.93-9.68-2.5-18.42v0c1.25-3.2 1-6.06.4-8.74v0H93.38Z"/><path fill="#373FFF" d="M70.34 90.51h.31c7.55 13.32 2.57 23.62-1.25 36.83v0c-1.12 2.65 2.91 4.7 4.05 1.87v0c3.41-12.03 8.08-25.36 2.18-37.46v0l.62-.31c28.87.23 58.13 4.99 84.27 17.79v0c1.73.39 7.33 4.69 8.42 1.24v0c-12.61-14.91-61.65-23.4-82.41-22.79v0c-.91.17-3.06-.11-5.53-.38v0c-1.94-.22-4.08-.44-5.94-.44v0c-3.48 0-6.04.74-4.77 3.61v0Z"/><path fill="#F1A5FF" d="M70.34 90.51h.31c4.46 8.44 5.66 18.74 1.24 27.46v0h4.36c2.28-8.86 3.03-18.35-.94-26.85v0c29.19.09 58.75 5.33 85.2 18.1v0c1.73.39 7.33 4.69 8.42 1.24v0c-12.61-14.91-61.65-23.4-82.41-22.79v0c-.91.17-3.06-.11-5.53-.38v0c-1.94-.22-4.08-.44-5.94-.44v0c-3.48 0-6.04.74-4.77 3.61v0Z"/><path fill="#373FFF" d="M59.1 92.07h.31c6.06 8.24 5.79 18.22 1.87 27.15 -1.32 2.17 1.95 4.34 3.12 1.87 2.19-4.63 3.7-9.85 3.74-14.99 .12-5.94-2.85-11.76-5.62-16.86 -1.55-2.72-5.56.66-3.44 2.8"/><g fill="#F1A5FF"><path d="M65.66 117.98c.8-5.11 2.73-10.31 1.56-15.61 -.16-3.09-7.9-21.4-8.74-10.62h.93c5.6 7.92 6.24 17.78 2.18 26.53l4.05-.32Z"/><path d="M58.48 91.76h.93c5.6 7.92 6.24 17.78 2.18 26.53v0l4.05-.32c.8-5.11 2.73-10.31 1.56-15.61v0c-.13-2.41-4.82-13.98-7.31-13.98v0c-.72 0-1.25.95-1.44 3.36v0Z"/></g><path fill="#000" d="M33.82 31.83c4.65 0 8.42 3.77 8.42 8.42s-3.78 8.42-8.43 8.42c-4.66 0-8.43-3.78-8.43-8.43 0-4.66 3.77-8.43 8.42-8.43"/><g fill="#FFF"><path d="M25.08 39.63v0c.17-5 4.36-8.91 9.35-8.74 4.99.17 8.9 4.36 8.73 9.35 -.17 4.87-4.17 8.73-9.04 8.73 -4.65.35-8.7-3.12-9.05-7.76 -.01-.02-.01-.04-.01-.05 .48 3.5 3.66 5.98 7.17 5.61 3.96 0 7.17-3.22 7.17-7.18 0-3.97-3.22-7.18-7.18-7.18 -3.97 0-7.18 3.21-7.18 7.17"/><path d="M28.83 39.63c1.37 0 2.49 1.11 2.49 2.49 0 1.37-1.13 2.49-2.5 2.49 -1.38 0-2.5-1.12-2.5-2.5s1.11-2.5 2.49-2.5"/></g><path fill="#000" d="M33.82 94.26c4.65 0 8.42 3.77 8.42 8.42s-3.78 8.42-8.43 8.42c-4.66 0-8.43-3.78-8.43-8.43 0-4.66 3.77-8.43 8.42-8.43"/><g fill="#FFF"><path d="M25.08 101.75v0c.17-5 4.36-8.91 9.35-8.74 4.99.17 8.9 4.36 8.73 9.35 -.17 4.87-4.17 8.73-9.04 8.73 -4.65.35-8.7-3.12-9.05-7.76 -.01-.02-.01-.04-.01-.05 .32 3.6 3.51 6.26 7.11 5.93 .02-.01.03-.01.05-.01 3.96-.01 7.17-3.23 7.17-7.19 -.01-3.97-3.23-7.18-7.19-7.18 -3.84 0-7 3.03-7.17 6.86"/><path d="M28.83 102.06c1.37 0 2.49 1.11 2.49 2.49 0 1.37-1.13 2.49-2.5 2.49 -1.38 0-2.5-1.13-2.5-2.5 0-1.39 1.11-2.5 2.49-2.5"/></g><path fill="#000" d="M260.73 35.58c14.04 0 25.27 5.61 29.96 23.72l-14.98 4.05c-3.13-10.31-7.81-14.36-14.99-14.36 -7.18 0-17.17 3.43-17.17 24.34s9.98 25.9 17.79 25.9c7.81.2 14.48-5.65 15.29-13.43h-13.11V73.62h28.4v37.14h-13.11v-10.3h-.32c-3.44 7.52-11.09 12.22-19.36 11.85 -22.17 0-32.15-16.54-32.15-38.71 0-23.1 12.79-38.08 33.7-38.08Zm169.48 20.91c11.85 0 19.97 7.8 23.09 16.23l-13.43 4.36c-2.19-6.87-5.31-9.06-9.99-9.06 -4.69 0-10.62 5.61-10.62 16.23 0 10.6 3.12 16.23 10.29 16.23 7.18 0 8.11-2.19 10.61-9.37l13.42 4.68c-3.48 10.17-13.3 16.8-24.04 16.22 -12.49 0-26.22-7.18-26.22-27.78 0-21.23 14.98-27.78 26.84-27.78Zm-46.2-17.17v18.41h13.73v11.54H384v23.09c0 5.61 1.56 7.49 7.49 7.49l5.3-.63v11.54l-10.61.93c-15.93-.32-18.11-5.94-18.11-15.92V69.23h-9.06V57.68h8.73V39.26h16.23Zm-62.43-2.5v73.97h-15.92V36.81h15.91Zm29.02 20.91v53.06h-15.92V57.72h15.91Zm127.34-20.92v29.02c4.29-5.89 11.13-9.37 18.41-9.37 9.05 0 15.6 4.36 15.6 15.6v38.7h-16.24V77.05c0-4.69-1.87-7.18-6.25-7.18 -4.37.31-8.47 2.2-11.55 5.3v35.58h-16.23V36.77h16.22Zm-127.04.62v12.79h-16.24v-12.8h16.23Z"/></g></svg>
